images-source/features/communicate.svg

<?xml version="1.0" encoding="UTF-8"?>
<svg width="68px" height="94px" viewBox="0 0 68 94" version="1.1" xmlns="http://www.w3.org/2000/svg" xmlns:xlink="http://www.w3.org/1999/xlink">
    <!-- Generator: Sketch 49 (51002) - http://www.bohemiancoding.com/sketch -->
    <title>management</title>
    <desc>Created with Sketch.</desc>
    <defs></defs>
    <g id="Page-1" stroke="none" stroke-width="1" fill="none" fill-rule="evenodd">
        <g id="platform" transform="translate(-840.000000, -4941.000000)">
            <g id="Group-13-Copy" transform="translate(25.000000, 4782.000000)">
                <g id="Group-4" transform="translate(315.000000, 123.000000)">
                    <g id="Group-4-Copy-2" transform="translate(452.000000, 5.000000)">
                        <g id="management" transform="translate(48.000000, 31.000000)">
                            <path d="M15,82 C11.3555723,79.8963019 8.68890566,78.5629686 7,78 C5.31109434,77.4370314 4.977761,77.1036981 6,77 L6,70 L7,52 L2,36 L4,22 L10,10 L15,5 L30,2 L38,2 L48,5 L53,15 L60,26 L60,38 L63,44 L66,51 L60,56 L60,66 L53,72 L43,74 L42,84 L41,92 L30,87 L15,82 Z" id="Path-2" fill="#FFFFFF"></path>
                            <path d="M67.165172,48.1476559 L61.4868065,37.7747312 L61.4868065,30.6647097 C61.4868065,13.7561075 47.7305161,0 30.821914,0 C13.9133118,0 0.157204301,13.7561075 0.157021505,30.6647097 L0.157021505,35.9305054 C0.157021505,42.4716667 2.12353763,48.7287634 5.85001075,54.0662151 L5.85001075,69.1607527 C5.85001075,70.1703333 6.66856989,70.9887097 7.67796774,70.9887097 C8.68736559,70.9887097 9.50592473,70.1703333 9.50592473,69.1607527 L9.50592473,53.482 C9.50592473,53.0961183 9.3838172,52.7201075 9.15715054,52.4078925 C5.661,47.5937849 3.81311828,41.896043 3.81311828,35.9305054 L3.81311828,30.6647097 C3.81311828,15.7719785 15.9291828,3.65591398 30.8220968,3.65591398 C45.714828,3.65591398 57.8308925,15.7719785 57.8308925,30.6647097 L57.8308925,38.2425054 C57.8308925,38.5492366 57.9082151,38.8512151 58.0555484,39.1202903 L63.9585699,49.9034086 C64.4045914,50.7183118 64.0843333,51.4244516 63.9260323,51.6904194 C63.7682796,51.9552903 63.3021505,52.5698495 62.3795806,52.5698495 C62.3764731,52.5698495 62.3733656,52.5698495 62.3700753,52.5698495 L59.6672581,52.5574194 C59.6643333,52.5574194 59.6615914,52.5574194 59.6588495,52.5574194 C59.1755376,52.5574194 58.7117849,52.7488065 58.3692258,53.0899032 C58.0246559,53.4330108 57.8308925,53.8991398 57.8308925,54.3853763 L57.8308925,62.5433656 C57.8308925,66.9026774 54.2842903,70.4492796 49.9247957,70.4492796 L44.437086,70.4492796 C41.9466774,70.4492796 39.9205699,72.4753871 39.9205699,74.9657957 L39.9205699,88.9377849 L15.0711398,77.7687849 C14.1500323,77.3547527 13.0682473,77.7656774 12.6543978,78.6866022 C12.2405484,79.6075269 12.6514731,80.6894946 13.5722151,81.1033441 L40.9990645,93.4307204 C41.2385269,93.5382043 41.4937097,93.5913978 41.7483441,93.5913978 C42.0956559,93.5913978 42.440957,93.4925054 42.7412903,93.2981935 C43.2618925,92.9614839 43.5763011,92.3836667 43.5763011,91.7634409 L43.5763011,74.9656129 C43.5763011,74.4910753 43.9623656,74.1050108 44.4369032,74.1050108 L49.9246129,74.1050108 C56.2999785,74.1050108 61.4866237,68.9183656 61.4866237,62.5431828 L61.4866237,56.2215591 L62.3530753,56.2255806 C62.3618495,56.2255806 62.3704409,56.2255806 62.3792151,56.2255806 C64.3210538,56.2255806 66.0720538,55.2309892 67.0666452,53.5611505 C68.0659892,51.8838172 68.1027312,49.860086 67.165172,48.1476559 Z" id="Shape" fill="#000000" fill-rule="nonzero"></path>
                            <path d="M48.6883656,24.3562473 L47.4612581,24.2111075 C47.3826559,24.0118602 47.3007634,23.8140753 47.2152151,23.6177527 L47.9802151,22.6472903 C49.4182688,20.8233548 49.3815269,18.3265484 47.8946667,16.8393226 L44.6908065,13.6354624 C43.2035806,12.1482366 40.7065914,12.1116774 38.8826559,13.549914 L37.9121935,14.3150968 C37.7160538,14.2297312 37.518086,14.1476559 37.3188387,14.0692366 L37.1736989,12.8423118 C36.9007849,10.5356129 35.1090215,8.79612903 33.005957,8.79612903 L28.4751828,8.79612903 C26.3723011,8.79612903 24.5805376,10.5357957 24.3076237,12.8428602 L24.1626667,14.0696022 C23.9636022,14.1480215 23.766,14.229914 23.5698602,14.3152796 L22.5995806,13.5500968 C20.7754624,12.1118602 18.2788387,12.1484194 16.7914301,13.6356452 L13.5873871,16.8396882 C12.1005269,18.3267312 12.0637849,20.8237204 13.5020215,22.6474731 L14.2670215,23.6177527 C14.1814731,23.8142581 14.0993978,24.012043 14.0209785,24.2112903 L12.793871,24.3564301 C10.4869892,24.6293441 8.74732258,26.4209247 8.74732258,28.5239892 L8.74732258,33.0549462 C8.74732258,35.1580108 10.4869892,36.9495914 12.7936882,37.2225054 L14.0206129,37.3676452 C14.0992151,37.5668925 14.1811075,37.7648602 14.2666559,37.9611828 L13.5014731,38.9316452 C12.0632366,40.7557634 12.0999785,43.2527527 13.5870215,44.7397957 L16.7908817,47.9436559 C18.2775591,49.4306989 20.7745484,49.4676237 22.5986667,48.0293871 L23.569129,47.2642043 C23.7654516,47.3497527 23.9632366,47.431828 24.1624839,47.5102473 L24.3076237,48.737172 C24.5805376,51.0440538 26.3723011,52.7837204 28.4751828,52.7837204 L33.005957,52.7837204 C35.1090215,52.7837204 36.9007849,51.0442366 37.1736989,48.737172 L37.3188387,47.5104301 C37.5184516,47.4316452 37.7166022,47.3495699 37.9131075,47.2640215 L38.8835699,48.0290215 C40.7073226,49.4670753 43.204129,49.4303333 44.6915376,47.9432903 L47.8952151,44.7396129 C49.3822581,43.2525699 49.419,40.7553978 47.9807634,38.9312796 L47.2155806,37.961 C47.301129,37.7646774 47.3830215,37.5667097 47.4616237,37.3674624 L48.6885484,37.2223226 C50.9952473,36.9494086 52.734914,35.1576452 52.734914,33.0547634 L52.734914,28.5238065 C52.7350968,26.4207419 50.9952473,24.6291613 48.6883656,24.3562473 Z M49.0788172,33.0549462 C49.0788172,33.2386559 48.7669677,33.5318602 48.2589785,33.592 L45.9058495,33.8702151 C45.1934946,33.9544839 44.5961183,34.4478495 44.3787742,35.1315054 C44.1351075,35.8976022 43.8239892,36.6477957 43.4545591,37.3610645 C43.1242473,37.9984731 43.1975484,38.7702366 43.6421075,39.3337957 L45.1097742,41.1950215 C45.4265591,41.5968065 45.4399032,42.0247312 45.3099355,42.1546989 L42.1064409,45.3583763 C41.9762903,45.4881613 41.5481828,45.4746344 41.1469462,45.1582151 L39.2853548,43.6907312 C38.7216129,43.2463548 37.9502151,43.1732366 37.3126237,43.5031828 C36.599172,43.8727957 35.8486129,44.183914 35.0825161,44.4275806 C34.3988602,44.6449247 33.9056774,45.2423011 33.8214086,45.9548387 L33.5431935,48.3077849 C33.4830538,48.8157742 33.1898495,49.1278065 33.0061398,49.1278065 L28.4753656,49.1278065 C28.2916559,49.1278065 27.9984516,48.8157742 27.9383118,48.3079677 L27.6602796,45.9548387 C27.5760108,45.2423011 27.082828,44.6447419 26.3989892,44.4273978 C25.6336237,44.183914 24.8832473,43.8729785 24.1694301,43.5031828 C23.9041935,43.3657204 23.6157419,43.2982688 23.3289355,43.2982688 C22.9260538,43.2982688 22.525914,43.4313441 22.1968817,43.690914 L20.3354731,45.1585806 C19.933871,45.4751828 19.506129,45.4885269 19.3761613,45.3587419 L16.1724839,42.1548817 C16.0425161,42.024914 16.056043,41.5969892 16.3726452,41.1953871 L17.8403118,39.3339785 C18.2846882,38.7702366 18.358172,37.9986559 18.0278602,37.3612473 C17.6582473,36.6477957 17.3473118,35.8977849 17.1036452,35.1316882 C16.8863011,34.4480323 16.2889247,33.9546667 15.5765699,33.8703978 L13.2234409,33.5921828 C12.7154516,33.5318602 12.4036022,33.2388387 12.4036022,33.055129 L12.4036022,28.524172 C12.4036022,28.3404624 12.7156344,28.0472581 13.2234409,27.9871183 L15.5765699,27.7089032 C16.2891075,27.6246344 16.8864839,27.1314516 17.103828,26.4476129 C17.3473118,25.6822473 17.6584301,24.9322366 18.0282258,24.2182366 C18.3585376,23.580828 18.2852366,22.8092473 17.8406774,22.2455054 L16.3731935,20.383914 C16.0564086,19.982129 16.0432473,19.5543871 16.1730323,19.4246022 L19.3768925,16.2207419 C19.5068602,16.0907742 19.9344194,16.1043011 20.3362043,16.4209032 L22.1977957,17.8885699 C22.7613548,18.3329462 23.5327527,18.4064301 24.1705269,18.0761183 C24.8834301,17.7066882 25.6334409,17.3957527 26.3989892,17.1522688 C27.082828,16.9347419 27.5760108,16.3373656 27.6602796,15.624828 L27.9383118,13.2718817 C27.9986344,12.7638925 28.2916559,12.4518602 28.4753656,12.4518602 L33.0061398,12.4518602 C33.1896667,12.4518602 33.4830538,12.7638925 33.5431935,13.2716989 L33.8214086,15.624828 C33.9056774,16.3371828 34.3988602,16.9345591 35.0825161,17.152086 C35.8484301,17.3957527 36.5986237,17.7066882 37.3120753,18.0763011 C37.9491183,18.4064301 38.7210645,18.333129 39.2846237,17.8885699 L41.1460323,16.4209032 C41.5476344,16.1041183 41.9759247,16.0907742 42.1055269,16.2207419 L45.3092043,19.4244194 C45.439172,19.5543871 45.425828,19.9823118 45.1092258,20.383914 L43.6417419,22.2453226 C43.1973656,22.8090645 43.1238817,23.580828 43.4541935,24.2180538 C43.8238065,24.9313226 44.1347419,25.6815161 44.3785914,26.4477957 C44.5961183,27.1314516 45.1934946,27.6246344 45.9058495,27.7087204 L48.2589785,27.9869355 C48.7667849,28.0472581 49.0788172,28.3402796 49.0788172,28.5239892 L49.0788172,33.0549462 Z" id="Shape" fill="#00AAE3" fill-rule="nonzero"></path>
                            <path d="M30.7413011,21.5424731 C25.6420323,21.5424731 21.4936667,25.6908387 21.4936667,30.7901075 C21.4936667,35.8893763 25.6420323,40.0377419 30.7413011,40.0377419 C35.8403871,40.0377419 39.9891183,35.8891935 39.9891183,30.7901075 C39.9891183,25.6910215 35.8405699,21.5424731 30.7413011,21.5424731 Z M30.7413011,36.381828 C27.658086,36.381828 25.1495806,33.8733226 25.1495806,30.7901075 C25.1495806,27.7068925 27.658086,25.1983871 30.7413011,25.1983871 C33.8246989,25.1983871 36.3330215,27.7067097 36.3332043,30.7901075 C36.3332043,33.8733226 33.8246989,36.381828 30.7413011,36.381828 Z" id="Shape" fill="#FFAF1D" fill-rule="nonzero"></path>
                            <circle id="Oval" fill="#000000" fill-rule="nonzero" cx="7.84394624" cy="76.3153763" r="1.82795699"></circle>
                        </g>
                    </g>
                </g>
            </g>
        </g>
    </g>
</svg>

<svg width="68" height="94" viewBox="0 0 68 94" xmlns="http://www.w3.org/2000/svg"><title>communicate</title><g fill="none" fill-rule="evenodd"><path d="M15 82c-3.644-2.104-6.311-3.437-8-4-1.689-.563-2.022-.896-1-1v-7l1-18-5-16 2-14 6-12 5-5 15-3h8l10 3 5 10 7 11v12l3 6 3 7-6 5v10l-7 6-10 2-1 10-1 8-11-5-15-5z" fill="#FFF"/><path d="M67.165 48.148l-5.678-10.373v-7.11C61.487 13.756 47.73 0 30.822 0S.157 13.756.157 30.665v5.266c0 6.54 1.967 12.798 5.693 18.135v15.095a1.828 1.828 0 0 0 3.656 0V53.482c0-.386-.122-.762-.349-1.074A27.864 27.864 0 0 1 3.813 35.93v-5.266c0-14.893 12.116-27.01 27.01-27.01 14.892 0 27.008 12.117 27.008 27.01v7.578c0 .306.077.608.225.877l5.903 10.783a1.772 1.772 0 0 1-.033 1.787c-.158.265-.624.88-1.546.88h-.01l-2.703-.013h-.008a1.828 1.828 0 0 0-1.828 1.828v8.158c0 4.36-3.547 7.906-7.906 7.906h-5.488a4.522 4.522 0 0 0-4.516 4.517v13.972l-24.85-11.17a1.828 1.828 0 1 0-1.499 3.335L41 93.431a1.828 1.828 0 0 0 2.577-1.668V74.966c0-.475.386-.861.86-.861h5.489c6.375 0 11.562-5.187 11.562-11.562v-6.321l.866.004h.026a5.408 5.408 0 0 0 4.688-2.665 5.408 5.408 0 0 0 .098-5.413z" fill="#000" fill-rule="nonzero"/><path d="M48.688 24.356l-1.227-.145c-.078-.2-.16-.397-.246-.593l.765-.97c1.438-1.825 1.402-4.321-.085-5.809l-3.204-3.204c-1.487-1.487-3.984-1.523-5.808-.085l-.97.765a18.078 18.078 0 0 0-.594-.246l-.145-1.227c-.273-2.306-2.065-4.046-4.168-4.046h-4.53c-2.104 0-3.895 1.74-4.168 4.047l-.145 1.227c-.2.078-.397.16-.593.245l-.97-.765c-1.825-1.438-4.321-1.402-5.809.086l-3.204 3.204c-1.486 1.487-1.523 3.984-.085 5.807l.765.97c-.086.197-.168.395-.246.594l-1.227.145c-2.307.273-4.047 2.065-4.047 4.168v4.53c0 2.104 1.74 3.896 4.047 4.169l1.227.145c.078.199.16.397.246.593l-.766.97c-1.438 1.825-1.401 4.322.086 5.809l3.204 3.204c1.487 1.487 3.984 1.524 5.808.085l.97-.765c.196.086.394.168.593.246l.146 1.227c.273 2.307 2.064 4.047 4.167 4.047h4.531c2.103 0 3.895-1.74 4.168-4.047l.145-1.227c.2-.078.398-.16.594-.246l.97.765c1.824 1.438 4.321 1.401 5.809-.086l3.203-3.203c1.487-1.487 1.524-3.985.086-5.809l-.765-.97c.085-.196.167-.394.246-.594l1.227-.145c2.306-.273 4.046-2.064 4.046-4.167v-4.531c0-2.103-1.74-3.895-4.047-4.168zm.39 8.699c0 .184-.311.477-.819.537l-2.353.278a1.828 1.828 0 0 0-1.527 1.262 14.26 14.26 0 0 1-.924 2.23c-.33.636-.257 1.408.187 1.972l1.468 1.861c.317.402.33.83.2.96l-3.204 3.203c-.13.13-.558.117-.96-.2l-1.86-1.467a1.829 1.829 0 0 0-1.973-.188c-.714.37-1.464.68-2.23.925a1.828 1.828 0 0 0-1.262 1.527l-.278 2.353c-.06.508-.353.82-.537.82h-4.53c-.184 0-.478-.312-.538-.82l-.278-2.353a1.828 1.828 0 0 0-1.261-1.528 14.258 14.258 0 0 1-2.23-.924 1.825 1.825 0 0 0-1.972.188l-1.862 1.468c-.401.316-.829.33-.959.2l-3.204-3.204c-.13-.13-.116-.558.2-.96l1.468-1.861a1.828 1.828 0 0 0 .188-1.973 14.25 14.25 0 0 1-.924-2.23 1.828 1.828 0 0 0-1.527-1.26l-2.354-.279c-.508-.06-.82-.353-.82-.537v-4.53c0-.185.313-.478.82-.538l2.354-.278a1.828 1.828 0 0 0 1.527-1.261c.243-.766.554-1.516.924-2.23a1.828 1.828 0 0 0-.187-1.972l-1.468-1.862c-.317-.402-.33-.83-.2-.96l3.204-3.203c.13-.13.557-.117.96.2l1.86 1.468a1.828 1.828 0 0 0 1.974.187c.712-.37 1.462-.68 2.228-.924a1.828 1.828 0 0 0 1.261-1.527l.278-2.353c.06-.508.354-.82.537-.82h4.531c.184 0 .477.312.537.82l.278 2.353c.085.712.578 1.31 1.262 1.527.765.244 1.516.555 2.23.924.636.33 1.408.257 1.972-.187l1.861-1.468c.402-.317.83-.33.96-.2l3.203 3.203c.13.13.117.558-.2.96l-1.467 1.861a1.828 1.828 0 0 0-.188 1.973c.37.713.68 1.464.925 2.23a1.828 1.828 0 0 0 1.527 1.26l2.353.279c.508.06.82.353.82.537v4.53z" fill="#00AAE3" fill-rule="nonzero"/><path d="M30.741 21.542c-5.099 0-9.247 4.149-9.247 9.248 0 5.1 4.148 9.248 9.247 9.248 5.1 0 9.248-4.149 9.248-9.248 0-5.099-4.148-9.248-9.248-9.248zm0 14.84a5.598 5.598 0 0 1-5.591-5.592 5.598 5.598 0 0 1 5.591-5.592 5.598 5.598 0 0 1 5.592 5.592 5.598 5.598 0 0 1-5.592 5.592z" fill="#FFAF1D" fill-rule="nonzero"/><circle fill="#000" fill-rule="nonzero" cx="7.844" cy="76.315" r="1.828"/></g></svg>
